X:1
T:Calliope House
C:Dave Richardson
L:1/8
M:6/8
I:linebreak $
K:E
V:1 treble
V:1
 B |"E" eBB gBB | fBB gBB |"A" cff f2 e |"B" fge c2 e |"E" B3 B2 G |$
"E" B2 c e2 f2 |1 g2 b gee |"B" f3 f2 :|2 gbg "B"fec |"E" e3 e3 |:$
"E" b3 gbb | fbb gbb |"A" a3 gag |"B" f2 e c2 e |"E" B3 B2 G |$
"E" B2 c e2 f2 |1  g2 b gfe |"B" f3 fga :|2 gbg "B"fec |"E" e3 e2 |]
